X: 13
T: No_111_Come,_Let_Us_Sing.krn
%%abc-version 2.0
%%abcx-abcm2ps-target-version 5.9.1 (29 Sep 2008)
%%abc-creator hum2abc beta
%%abcx-conversion-date 2020/08/10 18:54:56
%%humdrum-veritas 3596420339
%%humdrum-veritas-data 3596059183
%%linebreak <none>
%%barnumbers 0
L: 1/4
M: 2/4
K: Gb clef=treble
e// [I:setbarnb 1]| 
e3/A//e// ||  
[M:3/4]A2f | 
eB2- ||  
[M:2/4]B7//e// | 
e3/B//e// | 
A3/E/ | 
AG | 
E2- ||  
[M:3/4]E2B3//B// | 
e>>fe | 
B>>EE | 
A2B/A/ | 
GE2- | 
E2z |]  


